web/packages/design/src/ResourceIcon/assets/chillipiper.svg

<svg width="72" height="72" viewBox="0 0 72 72" fill="none" xmlns="http://www.w3.org/2000/svg">
<g clip-path="url(#clip0_15936_7027)">
<path d="M64.5773 19.7596C64.1804 20.4472 63.3055 20.6469 62.5947 20.293C58.3293 18.1691 53.7174 16.7521 48.9957 16.1074C48.3131 16.0142 47.9022 15.2872 48.1433 14.6419C48.2864 14.2584 48.6365 13.9813 49.0457 13.9666C50.5074 13.914 51.9732 13.9781 53.4247 14.1585C54.0709 14.2388 54.7155 13.9434 55.0209 13.3683C56.8134 9.99139 57.9151 6.1911 58.136 2.15611C58.153 1.8434 58.2558 1.54012 58.4449 1.29059C58.6417 1.03135 58.8428 0.775799 59.0486 0.524039C59.8038 -0.400524 61.2241 -0.0403909 61.4466 1.13247C62.2833 5.54594 62.0181 10.1554 60.6662 14.4424C60.4089 15.2586 60.7991 16.1494 61.5738 16.513C62.4317 16.9157 63.265 17.3619 64.071 17.8489C64.7309 18.2476 64.9626 19.0919 64.5773 19.7596Z" fill="#FF5721"/>
<path d="M47.5121 40.1875C46.5087 39.8932 46.116 38.7021 46.6878 37.8268C49.0513 34.2088 50.9528 30.5539 52.5719 26.402C52.7752 25.8804 52.5815 25.2814 52.0854 25.0216C50.3985 24.1383 49.0031 24.0459 47.2146 23.9442C47.1242 23.9389 47.0339 23.9341 46.9431 23.9295C46.5107 23.908 46.1319 24.2075 46.0329 24.6289C45.7983 25.6532 45.5371 26.6698 45.2522 27.678C44.7469 29.4675 44.1641 31.2297 43.5089 32.9632C43.0471 34.184 42.5489 35.3901 42.0159 36.5805C41.6696 37.3538 40.7612 37.6939 39.9947 37.3328C38.8225 36.7807 37.6708 36.1849 36.5423 35.5479C35.8672 35.1668 35.5952 34.3409 35.8742 33.6176C36.7202 31.4244 37.4604 29.1784 38.0885 26.887C38.3234 26.0342 38.5414 25.1746 38.7444 24.3093C38.7785 24.1642 38.8121 24.0186 38.8448 23.8735C38.8539 23.8344 38.8628 23.7953 38.8716 23.7563L38.8805 23.7169L38.8807 23.7157L38.8891 23.6783C38.8907 23.6708 38.8924 23.6634 38.8941 23.6559C38.8955 23.6497 38.8969 23.6434 38.8984 23.6372C39.0068 23.1534 39.1102 22.6678 39.2087 22.1803C39.5801 20.3427 41.1279 18.9301 43.002 18.9887C51.2886 19.2477 59.227 21.8152 66.0436 26.3815C67.4705 27.3373 67.9943 29.1673 67.3354 30.7533C66.7781 32.0951 66.1811 33.4161 65.5453 34.7151C64.6513 36.5436 63.6807 38.3279 62.6382 40.0642C61.8045 41.4528 60.2741 42.2711 58.6579 42.1643C54.9221 41.9178 51.1849 41.2645 47.5121 40.1875Z" fill="#FF5721"/>
<path d="M37.6725 41.513C38.5114 41.931 38.8368 42.9749 38.3335 43.7653C36.753 46.247 35.0153 48.6285 33.1417 50.8968C32.6167 51.5324 33.4416 52.441 34.0639 51.9002C36.7388 49.5756 39.2554 47.0688 41.5817 44.3956C42.0202 43.8917 42.7246 43.7109 43.3534 43.9361C47.27 45.3384 51.2815 46.2427 55.306 46.6712C56.3411 46.7814 56.8686 47.9993 56.1833 48.7829C53.1647 52.2338 49.819 55.3904 46.194 58.205C44.7004 59.3647 42.8009 59.8835 40.9343 59.58C35.588 58.7105 30.4012 56.8726 25.7084 54.1665C24.8753 53.6859 24.7141 52.5673 25.3272 51.8261C25.6403 51.4477 25.9495 51.0658 26.2548 50.6808C28.7251 47.5667 30.9334 44.2471 32.8516 40.7662C33.2908 39.9692 34.3046 39.6884 35.0956 40.1387C35.9416 40.6203 36.801 41.0788 37.6725 41.513Z" fill="#FF5721"/>
<path d="M20.3875 57.6726C20.9378 57.1647 21.7663 57.1023 22.392 57.5134C26.2868 60.0712 30.5821 62.0034 35.0732 63.2409C35.8668 63.4595 36.0039 64.5516 35.2633 64.9109C34.3635 65.3478 33.4533 65.7659 32.5331 66.1654C31.0176 66.8233 29.4754 67.43 27.9077 67.9839C20.9572 70.4377 13.6292 71.7831 6.26598 71.9995C4.19014 72.0605 3.67047 69.2255 5.50334 68.2493C7.41212 67.2324 9.27448 66.1287 11.0825 64.9423C14.3782 62.781 17.4919 60.3454 20.3875 57.6726Z" fill="#FF5721"/>
</g>
<defs>
<clipPath id="clip0_15936_7027">
<rect width="72" height="72" fill="white" transform="translate(0 0.000488281)"/>
</clipPath>
</defs>
</svg>

<svg xmlns="http://www.w3.org/2000/svg" width="72" height="72" fill="none" viewBox="0 0 72 72"><g fill="#ff5721" clip-path="url(#a)"><path d="M64.577 19.76c-.397.687-1.271.887-1.982.533a43.9 43.9 0 0 0-13.6-4.186c-.682-.093-1.093-.82-.852-1.465.143-.384.493-.66.903-.675a27.5 27.5 0 0 1 4.379.191c.646.08 1.29-.215 1.596-.79a27 27 0 0 0 3.115-11.212 1.57 1.57 0 0 1 .309-.865q.295-.39.604-.767a1.349 1.349 0 0 1 2.398.608 27.44 27.44 0 0 1-.78 13.31 1.72 1.72 0 0 0 .907 2.071q1.287.605 2.497 1.336a1.41 1.41 0 0 1 .506 1.91M47.512 40.188c-1.003-.295-1.396-1.486-.824-2.361a61 61 0 0 0 5.884-11.425c.203-.522.01-1.12-.487-1.38-1.687-.884-3.082-.976-4.87-1.078l-.272-.014a.896.896 0 0 0-.91.699 64.6 64.6 0 0 1-4.017 11.952 1.51 1.51 0 0 1-2.021.752 53 53 0 0 1-3.453-1.785c-.675-.381-.947-1.207-.668-1.93a70.5 70.5 0 0 0 2.998-9.862l.008-.04.01-.038q0-.011.004-.022l.004-.019q.163-.726.31-1.457c.372-1.837 1.92-3.25 3.794-3.191a43.75 43.75 0 0 1 23.042 7.392c1.427.956 1.95 2.786 1.291 4.372a71 71 0 0 1-4.697 9.311 4.32 4.32 0 0 1-3.98 2.1 51.7 51.7 0 0 1-11.146-1.977m-9.839 1.326c.838.418 1.164 1.462.66 2.252a72 72 0 0 1-5.191 7.132c-.525.635.3 1.544.922 1.003a76 76 0 0 0 7.518-7.504 1.62 1.62 0 0 1 1.771-.46 51.7 51.7 0 0 0 11.953 2.735c1.035.11 1.563 1.328.877 2.112a71.7 71.7 0 0 1-9.989 9.422c-1.494 1.16-3.393 1.678-5.26 1.375a45 45 0 0 1-15.226-5.413c-.833-.481-.994-1.6-.38-2.34q.469-.57.927-1.146a71.4 71.4 0 0 0 6.597-9.915 1.64 1.64 0 0 1 2.244-.627q1.269.722 2.577 1.374m-17.285 16.16a1.635 1.635 0 0 1 2.004-.16 44.8 44.8 0 0 0 12.681 5.728c.794.218.93 1.31.19 1.67a71 71 0 0 1-7.355 3.073A71.4 71.4 0 0 1 6.266 72c-2.076.06-2.596-2.775-.763-3.75a71 71 0 0 0 5.58-3.308 71.7 71.7 0 0 0 9.305-7.27"/></g><defs><clipPath id="a"><path fill="#fff" d="M0 0h72v72H0z"/></clipPath></defs></svg>
